!!!COM:	Busnoys, Antoine
!!!CDT:	~1430///-1492/11/06
!!!OTL:	O Fortune trop tu es dure
!!!AGN:	Song; Chanson
!!!SCT:	Bus3045
!!!SCA:	Bus3045
!!!voices:	3
**kern	**kern	**kern
*staff3	*staff2	*staff1
*Ivox	*Ivox	*Ivox
*I"Contratenor	*I"Tenor	*I"Cantus
*I'Ct	*I'T	*I'Cn
*clefF4	*clefGv2	*clefG2
*k[b-e-]	*k[b-]	*k[b-]
*M2/1	*M2/1	*M2/1
*met(C|)	*met(C|)	*met(C|)
=1-	=1-	=1-
!!LO:TX:Z=12:t=Rondeau
0D	[0d	0a
=2	=2	=2
1G	0d]	1b-
1F	.	1a
=3	=3	=3
1G	1B-	1.g
1E-	1c	.
.	.	4f
.	.	4e
=4	=4	=4
0D	1.d	1.f
.	4c	2f
.	4B-	.
=5	=5	=5
1r	1A	1f
1GG	1B-	[1g
=6	=6	=6
1BB-	0G	2g]
.	.	2f
1C	.	2e
.	.	2d
=7	=7	=7
1D	1F	1d
1C	[1G	1e
=8	=8	=8
2BB-	1G]	2d
2GG	.	1g
1C	1E	.
.	.	2e
=9	=9	=9
1BB-	1D	1f
1GG	[1G	[1b-
=10	=10	=10
1G	1G]	2b-]
.	.	2a
1D	1F	[1a
=11	=11	=11
3%2GV	0B-	1a]
3%2E-	.	.
.	.	1g
3%2GZ	.	.
=12	=12	=12
0D	0A	1a
.	.	[1f
=13	=13	=13
1BB-	0d	1f]
1GG	.	1b-
=14	=14	=14
1F	1c	2a
.	.	2g
1G	1B-	[1g
=15	=15	=15
0D	0A	1g]
.	.	1f#i
=16	=16	=16
0GG	[0G	0g
=17	=17	=17
1C	0G]	1r
1BB-	.	1d
=18	=18	=18
1C	1r	1e
1D	1d	1f
=19	=19	=19
1C	1e	2.g
.	.	4f
1D	1f	1d
=20	=20	=20
1E-	2.g	1r
.	4f	.
1F	1d	1a
=21	=21	=21
1G	1r	1b-
1r	1A	1cc
=22	=22	=22
1GG	2B-	2.dd
.	1G	.
.	.	4cc
1AA	.	1a
.	2F	.
=23	=23	=23
2GG	2G	2b-
2G	2B-	1g
2E-	2c	.
2F	[2A	[2a
=24	=24	=24
2.D	2A]	4a]
.	.	4g
.	1d	2f
4C	.	.
1AA	.	1e
.	2c#i	.
=25	=25	=25
1r	1d	1f
1D	1B-	1d
=26	=26	=26
1BB-	1G	1r
1GG	1r	1dd
=27	=27	=27
1r	1g	1dd
1G	1g	1dd
=28	=28	=28
1G	1g	1b-
[1C	1e	1g
=29	=29	=29
1C]	1c	1cc
1D	1f	1a
=30	=30	=30
1G	1g	1b-
1F	[1a	1cc
=31	=31	=31
0G	2a]	2b-
.	2g	1dd
.	[1g	.
.	.	4cc
.	.	4b-
=32	=32	=32
0A	2g]	1a
.	2f#i	.
.	2f#i	1a
.	2e	.
=33	=33	=33
3%2GV	1.g	2b-
.	.	2cc
3%2E-	.	.
.	.	2b-
3%2GZ	.	.
.	4f#i	4a
.	4e	4g
=34	=34	=34
0D	0f#i	0a
=35	=35	=35
0DN	0f#iN	0aN
=36	=36	=36
1D	1f#i	1a
1D	1f#i	1a
=37	=37	=37
1GG	1.g	1b-
1G	.	[1dd
.	2f	.
=38	=38	=38
1F	1d	2dd]
.	.	2cc
1A	1c	1a
=39	=39	=39
1G	1d	1.b-
1C	1e-	.
.	.	4a
.	.	4g
=40	=40	=40
1D	2d	1f
.	1d	.
1G	.	1b-
.	2B-	.
=41	=41	=41
1F	1A	1cc
[1B-	1G	[1dd
=42	=42	=42
2B-]	1.d	2dd]
2A	.	2cc
2.G	.	2b-
.	2e	2a
4F	.	.
=43	=43	=43
1D	1f	1a
1G	1g	2r
.	.	[2dd
=44	=44	=44
1A	1e	2dd]
.	.	2cc
1D	[1d	2dd
.	.	2ee
=45	=45	=45
1r	1d]	2ff
.	.	4ee
.	.	4ff
1A	1c	2gg
.	.	2ff
=46	=46	=46
1F	1d	2ee
.	.	2dd
1D	1f	[1dd
=47	=47	=47
0A	0e	1dd]
.	.	1cc#i
=48	=48	=48
1B-	[0d	0dd
[1G	.	.
=49	=49	=49
1G]	0d]	1r
1F#i	.	1a
=50	=50	=50
1G	1r	1b-
1r	1A	1cc
=51	=51	=51
1D	1B-	1dd
1E-	1c	1g
=52	=52	=52
1D	1d	1r
1E-	1G	1b-
=53	=53	=53
1F	1r	1a
1G	1B-	1g
=54	=54	=54
1D	1A	1f
1G	1G	1b-
=55	=55	=55
2.A	1F	2a
.	.	1cc
4G	.	.
1E-	1c	.
.	.	2b-
=56	=56	=56
1F	1c	2a
.	.	2g
2G	2B-	2.g
2E-	2c	.
.	.	4e
=57	=57	=57
2D	2d	2f
1G	2B-	2g
.	1A	2a
2F	.	2cc
=58	=58	=58
2G	1G	2b-
2B-	.	1dd
1A	1F	.
.	.	2cc
=59	=59	=59
1G	1B-	2b-
.	.	2g
2F	1c	2a
2A	.	4g
.	.	4a
=60	=60	=60
2G	1d	1b-
2D	.	.
2E-	1B-	[1g
2G	.	.
=61	=61	=61
2.D	0A	1g]
4C	.	.
2AA	.	1f#i
2D	.	.
=62	=62	=62
2E-	[0Gl	[0gl
1C	.	.
2BB-	.	.
=63	=63	=63
0GGl	0G]	0g]
==	==	==
*-	*-	*-
!!!RDF**kern: l=long note in original notation
!!!RDF**kern: i=editorial accidental
!!!RDF**kern: V=start of tuplet marker
!!!RDF**kern: Z=end of tuplet marker
!!!RDF**kern: N=signum congruentiae
!!!ENC:	Chris Gage 02-12-2015
!!!END:	2015/02/20/
!!!EED:	Jesse Rodin
!!!EEV:	2015/05/10/
!!!ONB:	Translated from MusicXML and edited on 2015/05/10/ by Craig Sapp
!!muse2ps: C^@{COM}^i2I150v95,95,150Q16
